X:1
T:In the Hollow of His Hand
T:In the Hollow of His Hand
T:Samuel William Beazley
T:Florence Jones Hadley, circa 1914
T:Public Domain Courtesy of the Cyber Hymnal™
C:Samuel William Beazley
Z:Public Domain
Z:Courtesy of the Cyber Hymnal™
%%score ( 1 2 ) ( 3 4 )
L:1/8
Q:1/4=110
M:4/4
K:Ab
V:1 treble 
V:2 treble 
V:3 bass 
V:4 bass 
V:1
"^Male Chorus or Quartet" [EA][EB] | [Ac]<[Ac] [Ac]>[Ac] [Ad]2 [Ad]>[Ad] | [Ac]2 [EA]4 [Ac]>[Ac] | %3
w: 1.~In the|hol- low of His hand He will|hide me Wh- en|
w: 2.~In the|hol- low of His hand He will|hide me When the|
w: 3.~In the|hol- low of His hand He will|hide me When the|
 [Bd]3 [Ac] [GB]2 [Ge]2 | e6 [ce]>[Bd] | [Ac]>[Ac] [Ac]>[Ac] [Gc]2 [Gc]2 | %6
w: doubt and sin draw|near, Though no|earth- ly friend may walk be-|
w: storm is on the|deep, And I|know what- ev- er may be-|
w: storms of life sweep|by, To the|har- bor sa- fe He will|
 [GB]2 [Af]4 [=Ae]->[Ae] | [A=d]3 [AB] [Ac]2 [Bd]2 | !fermata!e6 (c2 !fermata!d2) || %9
w: side me, I *|rest se- cure from|fear. * *|
w: tide me, His *|vig- il He will|keep. I *|
w: guide me, Where~His *|bless- èd is- lands|lie. * *|
"^Refrain" [cd]2 | [ce]3 [Ac] [df]2 [ce]2 | [Ac]2 [GB]4 (cA) | [FA]3 A A2 [Ad]2 | %13
w: ||||
w: |know what- e’er be-|tide me, His *|hand will safe- ly|
w: ||||
 [Ad]2 [Ac]4 [ce]2 | [c=e]3 [ce] [cf]2 [c_e]2 | [B=d]2 [Bd]4 [=Bd]>[Bd] | [ce] [ce]3 [Bd]2 [Bd]2 | %17
w: ||||
w: guide me, His|love will ev- er|hide me In the|hol- low of His|
w: ||||
 [Ac]6 |] %18
w: |
w: hand.|
w: |
V:2
 x2 | x8 | x8 | x8 | (A2 d2 c2) x2 | x8 | x8 | x8 | B2 x8 || x2 | x8 | x6 G2 | x3 A A2 x2 | x8 | %14
 x8 | x8 | x8 | x6 |] %18
V:3
 [A,,C,][A,,D,] | [A,,E,]<[A,,E,] [A,,E,]>[A,,E,] [A,,F,]2 [A,,F,]>[A,,F,] | %2
 [A,,E,]2 [A,,C,]4 [A,,E,]>[A,,E,] | E,3 E, E,2 [D,E,]2 | %4
 ([C,E,]2 [B,,G,]2 [A,,A,]2) [A,,A,]>[A,,E,] | [A,,E,]>[A,,E,] [A,,E,]>[A,,E,] [C,=E,]2 [C,E,]2 | %6
 [F,,F,]2 [F,,F,]4 [F,,F,]->[F,,F,] | [B,,F,]3 [B,,=E,] [B,,=D,]2 [B,,A,]2 | %8
 (!fermata!G,2 A,2 !fermata!B,2) x4 || [E,G,]2 | [A,,A,]3 [A,,E,] [A,,A,]2 [A,,A,]2 | %11
 E,2 _E,4 [=E,G,]2 | [F,A,]3 [E,_G,] [D,F,]2 [D,F,]2 | [A,,F,]2 [A,,E,]4 A,2 | %14
 [G,B,]3 [G,B,] [F,=A,]2 [F,A,]2 | [B,,A,]2 [B,,A,]4 [_F,A,]>[F,A,] | %16
 [E,A,] [E,A,]3 [E,,E,G,]2 [E,,E,G,]2 | [A,,E,]6 |] %18
V:4
 x2 | x8 | x8 | E,3 E, E,2 x2 | x8 | x8 | x8 | x8 | E,6 x4 || x2 | x8 | =E,2 =E,4 x2 | x8 | %13
 x6 A,2 | x8 | x8 | x8 | x6 |] %18

